X:259
T:Yorkshire Old Spot Hp,aka. VWMLa.259
%%VWML:Anon2-3049-p174-0
F:http://www.vwml.org/record/Anon2/3049/p174
R:Hornpipe
S:Anon. MS, late 18thC, Vaughan Williams Mem. Library
N:My title..from Yorkshire..old for a dotted
N:Hp..pig to play..great dancing....I don't recall
N:seeing ANY earlier Hp. written down spotty..CGP
O:England;Yorkshire
Z:vmp/efdss.Simon Wilson. Reviewed PJH 2008.
M:4/4
L:1/8
Q:2/4=75
K:Bb
|:B|d>BF>B d>BA>c|B>dc>e d3c|B>AG>F E>DC>c|A2F2 F2zB|\
d>BF>B d>BA>c|B>df>b g3f|e>dc>B G>ec>A|B2B2 B2z:|
|:f|d>fB>d F>BD>F|G>FE>c C3B,|A,>CF>E D>FB>F|{G}F2ED C3F|\
G>FEc A>GFd|B>AGd e3g|fF GA B>dc>A|B2B2 B2z:|
W:Untitled in MS.
